images/rp.svg

<?xml version="1.0" encoding="UTF-8" standalone="no"?><!DOCTYPE svg PUBLIC "-//W3C//DTD SVG 1.1//EN" "http://www.w3.org/Graphics/SVG/1.1/DTD/svg11.dtd"><svg width="100%" height="100%" viewBox="0 0 57 57" version="1.1" xmlns="http://www.w3.org/2000/svg" xmlns:xlink="http://www.w3.org/1999/xlink" xml:space="preserve" xmlns:serif="http://www.serif.com/" style="fill-rule:evenodd;clip-rule:evenodd;"><circle id="cir_1" cx="28.5" cy="28.5" r="24.5" style="fill:#fafafa;"/><circle id="cir_2" cx="28.5" cy="28.5" r="22.05" style="fill:#fafafa;stroke:#f00;stroke-width:2px;"/><g><path d="M31.097,13.685c-0.119,0.044 -0.594,0.371 -1.039,0.727c-1.217,0.95 -2.998,1.988 -4.972,2.864l-1.751,0.801l-0.608,-0.296c-0.341,-0.179 -0.994,-0.386 -1.469,-0.49c-1.529,-0.312 -2.093,0.341 -1.469,1.677c0.192,0.4 0.638,2.701 1.276,6.515c0.534,3.249 0.979,5.921 0.979,5.965c0,0.134 -3.101,0.416 -5.743,0.505c-2.374,0.089 -2.894,0.148 -3.101,0.356c-0.431,0.43 -0.164,0.92 0.786,1.425c1.558,0.831 1.914,0.845 4.511,0.341c2.82,-0.549 5.15,-0.846 8.148,-1.039c1.261,-0.089 2.997,-0.193 3.858,-0.252c0.861,-0.06 4.096,-0.119 7.197,-0.119c6.174,-0.015 6.307,-0.03 6.307,-0.831c0,-0.534 -0.786,-1.217 -1.929,-1.647c-1.187,-0.46 -1.736,-0.49 -3.279,-0.238c-1.692,0.297 -5.625,0.742 -5.714,0.668c-0.119,-0.119 1.009,-4.066 1.306,-4.526c0.371,-0.623 0.267,-0.935 -0.593,-1.677c-0.564,-0.475 -0.639,-0.594 -0.386,-0.594c0.178,0 1.246,-0.103 2.374,-0.237c2.167,-0.252 2.642,-0.43 2.553,-1.009c-0.06,-0.416 -0.846,-0.905 -2.034,-1.291l-0.979,-0.312l-3.339,0.831c-3.22,0.787 -7.539,1.722 -8.028,1.722c-0.282,0 -0.371,-0.446 -0.52,-2.315c-0.059,-0.772 -0.044,-1.232 0.06,-1.306c0.074,-0.045 1.038,-0.327 2.137,-0.609c1.083,-0.282 2.982,-0.786 4.199,-1.113c1.232,-0.326 2.657,-0.668 3.191,-0.757c1.083,-0.193 1.988,-0.593 2.122,-0.949c0.163,-0.416 -0.237,-0.965 -1.232,-1.707c-1.395,-1.039 -2.166,-1.336 -2.819,-1.083Zm-0.46,11.248c0.148,0.297 0.222,0.861 0.207,1.663c-0.029,1.32 -0.296,4.066 -0.415,4.184c-0.045,0.03 -0.861,0.119 -1.825,0.178c-0.95,0.06 -2.241,0.164 -2.85,0.208l-1.128,0.104l-0.326,-2.805c-0.178,-1.528 -0.327,-2.879 -0.327,-2.982c0,-0.104 0.238,-0.179 0.639,-0.193c0.341,0 1.632,-0.193 2.849,-0.431c2.701,-0.519 2.894,-0.504 3.176,0.074Z" style="fill:#f00;fill-rule:nonzero;"/><path d="M23.142,34.624c-0.089,0.059 -0.207,0.401 -0.267,0.757c-0.074,0.49 -0.311,0.92 -0.905,1.662c-0.92,1.128 -3.962,3.74 -5.639,4.823c-1.158,0.757 -1.351,1.098 -0.787,1.454c0.772,0.475 5.595,-2.003 8.489,-4.348c0.564,-0.46 1.424,-1.098 1.929,-1.425c0.757,-0.489 0.92,-0.667 0.95,-1.053c0.044,-0.386 -0.045,-0.549 -0.49,-0.92c-0.846,-0.683 -2.82,-1.262 -3.28,-0.95Z" style="fill:#f00;fill-rule:nonzero;"/><path d="M30.162,35.054c-0.267,0.267 0.015,0.683 1.32,1.974c0.772,0.772 2.048,2.152 2.82,3.057c1.425,1.662 2.745,2.805 3.443,2.983c0.223,0.044 0.534,0 0.757,-0.119c1.232,-0.697 0.935,-3.309 -0.52,-4.571c-1.306,-1.157 -4.318,-2.73 -6.232,-3.264c-0.653,-0.178 -1.44,-0.208 -1.588,-0.06Z" style="fill:#f00;fill-rule:nonzero;"/></g></svg>

<?xml version="1.0" encoding="UTF-8" standalone="no"?>
<!DOCTYPE svg PUBLIC "-//W3C//DTD SVG 1.1//EN" "http://www.w3.org/Graphics/SVG/1.1/DTD/svg11.dtd">
<svg width="100%" height="100%" viewBox="0 0 57 57" version="1.1" xmlns="http://www.w3.org/2000/svg" xmlns:xlink="http://www.w3.org/1999/xlink" xml:space="preserve" xmlns:serif="http://www.serif.com/" style="fill-rule:evenodd;clip-rule:evenodd;">
    <g id="cir_1" transform="matrix(1.0198,0,0,1.03035,-0.0791987,-0.121408)">
        <circle cx="28.5" cy="28.5" r="24.5" style="fill:rgb(119,119,119);"/>
    </g>
    <circle id="cir_11" serif:id="cir_1" cx="28.5" cy="28.5" r="24.5" style="fill:rgb(250,250,250);"/>
    <circle id="cir_2" cx="28.5" cy="28.5" r="22.05" style="fill:rgb(250,250,250);stroke:rgb(255,0,0);stroke-width:2px;"/>
    <g>
        <path d="M31.097,13.685C30.978,13.729 30.503,14.056 30.058,14.412C28.841,15.362 27.06,16.4 25.086,17.276L23.335,18.077L22.727,17.781C22.386,17.602 21.733,17.395 21.258,17.291C19.729,16.979 19.165,17.632 19.789,18.968C19.981,19.368 20.427,21.669 21.065,25.483C21.599,28.732 22.044,31.404 22.044,31.448C22.044,31.582 18.943,31.864 16.301,31.953C13.927,32.042 13.407,32.101 13.2,32.309C12.769,32.739 13.036,33.229 13.986,33.734C15.544,34.565 15.9,34.579 18.497,34.075C21.317,33.526 23.647,33.229 26.645,33.036C27.906,32.947 29.642,32.843 30.503,32.784C31.364,32.724 34.599,32.665 37.7,32.665C43.874,32.65 44.007,32.635 44.007,31.834C44.007,31.3 43.221,30.617 42.078,30.187C40.891,29.727 40.342,29.697 38.799,29.949C37.107,30.246 33.174,30.691 33.085,30.617C32.966,30.498 34.094,26.551 34.391,26.091C34.762,25.468 34.658,25.156 33.798,24.414C33.234,23.939 33.159,23.82 33.412,23.82C33.59,23.82 34.658,23.717 35.786,23.583C37.953,23.331 38.428,23.153 38.339,22.574C38.279,22.158 37.493,21.669 36.305,21.283L35.326,20.971L31.987,21.802C28.767,22.589 24.448,23.524 23.959,23.524C23.677,23.524 23.588,23.078 23.439,21.209C23.38,20.437 23.395,19.977 23.499,19.903C23.573,19.858 24.537,19.576 25.636,19.294C26.719,19.012 28.618,18.508 29.835,18.181C31.067,17.855 32.492,17.513 33.026,17.424C34.109,17.231 35.014,16.831 35.148,16.475C35.311,16.059 34.911,15.51 33.916,14.768C32.521,13.729 31.75,13.432 31.097,13.685ZM30.637,24.933C30.785,25.23 30.859,25.794 30.844,26.596C30.815,27.916 30.548,30.662 30.429,30.78C30.384,30.81 29.568,30.899 28.604,30.958C27.654,31.018 26.363,31.122 25.754,31.166L24.626,31.27L24.3,28.465C24.122,26.937 23.973,25.586 23.973,25.483C23.973,25.379 24.211,25.304 24.612,25.29C24.953,25.29 26.244,25.097 27.461,24.859C30.162,24.34 30.355,24.355 30.637,24.933Z" style="fill:rgb(255,0,0);fill-rule:nonzero;"/>
        <path d="M23.142,34.624C23.053,34.683 22.935,35.025 22.875,35.381C22.801,35.871 22.564,36.301 21.97,37.043C21.05,38.171 18.008,40.783 16.331,41.866C15.173,42.623 14.98,42.964 15.544,43.32C16.316,43.795 21.139,41.317 24.033,38.972C24.597,38.512 25.457,37.874 25.962,37.547C26.719,37.058 26.882,36.88 26.912,36.494C26.956,36.108 26.867,35.945 26.422,35.574C25.576,34.891 23.602,34.312 23.142,34.624Z" style="fill:rgb(255,0,0);fill-rule:nonzero;"/>
        <path d="M30.162,35.054C29.895,35.321 30.177,35.737 31.482,37.028C32.254,37.8 33.53,39.18 34.302,40.085C35.727,41.747 37.047,42.89 37.745,43.068C37.968,43.112 38.279,43.068 38.502,42.949C39.734,42.252 39.437,39.64 37.982,38.378C36.676,37.221 33.664,35.648 31.75,35.114C31.097,34.936 30.31,34.906 30.162,35.054Z" style="fill:rgb(255,0,0);fill-rule:nonzero;"/>
    </g>
</svg>
